images/flags/nz.svg

<svg viewBox="0 0 640 480" xmlns="http://www.w3.org/2000/svg" xmlns:xlink="http://www.w3.org/1999/xlink"><defs><g id="a"><g id="b"><path d="m0 0v.5l1-.5z" transform="translate(0 -.3)"/><path d="m0 0v-.5l1 .5z" transform="matrix(.80901699 -.58778525 .58778525 .80901699 .213049 .255696)"/></g><use transform="scale(-1 1)" xlink:href="#b"/><use transform="matrix(.30901699 .95105652 -.95105652 .30901699 0 0)" xlink:href="#b"/><use transform="matrix(.30901699 -.95105652 .95105652 .30901699 0 0)" xlink:href="#b"/><use transform="matrix(-.30901699 .95105652 .95105652 .30901699 0 0)" xlink:href="#b"/></g><clipPath id="c"><path d="m0 0h600v300h-600z"/></clipPath><clipPath id="d"><path d="m0 0 300 150h-300zm300 0h300l-300 150zm0 150h300v150zm0 0v150h-300z"/></clipPath></defs><path d="m0 0h640v480h-640z" fill="#00247d" fill-rule="evenodd"/><g transform="matrix(.66825 0 0 .66825 -93 36.1)"><use fill="#fff" height="100%" transform="matrix(45.4 0 0 45.4 900 120)" width="100%" xlink:href="#a"/><use fill="#cc142b" height="100%" transform="matrix(30 0 0 30 900 120)" width="100%" xlink:href="#a"/></g><g transform="matrix(.09300242 .66174664 -.66174664 .09300242 583.637238 -421.39784)"><use fill="#fff" height="100%" transform="matrix(5.62259328 -40.00682998 40.00682998 5.62259328 900.014856 119.948656)" width="100%" xlink:href="#a"/><use fill="#cc142b" height="100%" transform="matrix(3.47932752 -24.75670172 24.75670172 3.47932752 900.014856 119.948656)" width="100%" xlink:href="#a"/></g><g transform="matrix(.09300242 .66174664 -.66174664 .09300242 583.637238 -421.39784)"><use fill="#fff" height="100%" transform="matrix(6.31845878 -44.95817032 44.95817032 6.31845878 900.059711 380.000256)" width="100%" xlink:href="#a"/><use fill="#cc142b" height="100%" transform="matrix(4.17519303 -29.70804206 29.70804206 4.17519303 900.059711 380.000256)" width="100%" xlink:href="#a"/></g><g transform="matrix(.66825 0 0 .66825 -93 36.1)"><use fill="#fff" height="100%" transform="matrix(50.4 0 0 50.4 900 480)" width="100%" xlink:href="#a"/><use fill="#cc142b" height="100%" transform="matrix(35 0 0 35 900 480)" width="100%" xlink:href="#a"/></g><path clip-path="url(#c)" d="m0 0 600 300m-600 0 600-300" stroke="#fff" stroke-width="60" transform="scale(.60681 .73139)"/><path clip-path="url(#d)" d="m0 0 600 300m-600 0 600-300" stroke="#cc142b" stroke-width="40" transform="scale(.60681 .73139)"/><path clip-path="url(#c)" d="m151.7 0v79.4h-151.7v60.6h151.7v79.4h60.7v-79.3h151.6v-60.7h-151.6v-79.4z" fill="#fff"/><path d="m163.8 0v91.5h-163.8v36.4h163.8v91.5h36.4v-91.4h163.9v-36.5h-163.9v-91.5z" fill="#cc142b"/></svg>

<svg xmlns="http://www.w3.org/2000/svg" xmlns:xlink="http://www.w3.org/1999/xlink" id="flag-icon-css-nz" viewBox="0 0 640 480">
  <defs>
    <g id="b">
      <g id="a">
        <path d="M0 0v.5L1 0z" transform="translate(0 -.3)"/>
        <path d="M0 0v-.5L1 0z" transform="rotate(-36 .5 -.2)"/>
      </g>
      <use transform="scale(-1 1)" xlink:href="#a"/>
      <use transform="rotate(72 0 0)" xlink:href="#a"/>
      <use transform="rotate(-72 0 0)" xlink:href="#a"/>
      <use transform="scale(-1 1) rotate(72)" xlink:href="#a"/>
    </g>
    <clipPath id="c">
      <path d="M0 0h600v300H0z"/>
    </clipPath>
    <clipPath id="d">
      <path d="M0 0l300 150H0zm300 0h300L300 150zm0 150h300v150zm0 0v150H0z"/>
    </clipPath>
  </defs>
  <path fill="#00247d" fill-rule="evenodd" d="M0 0h640v480H0z"/>
  <g transform="translate(-93 36.1) scale(.66825)">
    <use width="100%" height="100%" fill="#fff" transform="matrix(45.4 0 0 45.4 900 120)" xlink:href="#b"/>
    <use width="100%" height="100%" fill="#cc142b" transform="matrix(30 0 0 30 900 120)" xlink:href="#b"/>
  </g>
  <g transform="rotate(82 534.2 125) scale(.66825)">
    <use width="100%" height="100%" fill="#fff" transform="rotate(-82 519 -457.7) scale(40.4)" xlink:href="#b"/>
    <use width="100%" height="100%" fill="#cc142b" transform="rotate(-82 519 -457.7) scale(25)" xlink:href="#b"/>
  </g>
  <g transform="rotate(82 534.2 125) scale(.66825)">
    <use width="100%" height="100%" fill="#fff" transform="rotate(-82 668.6 -327.7) scale(45.4)" xlink:href="#b"/>
    <use width="100%" height="100%" fill="#cc142b" transform="rotate(-82 668.6 -327.7) scale(30)" xlink:href="#b"/>
  </g>
  <g transform="translate(-93 36.1) scale(.66825)">
    <use width="100%" height="100%" fill="#fff" transform="matrix(50.4 0 0 50.4 900 480)" xlink:href="#b"/>
    <use width="100%" height="100%" fill="#cc142b" transform="matrix(35 0 0 35 900 480)" xlink:href="#b"/>
  </g>
  <path stroke="#fff" stroke-width="60" d="M0 0l600 300M0 300L600 0" clip-path="url(#c)" transform="scale(.60681 .73139)"/>
  <path stroke="#cc142b" stroke-width="40" d="M0 0l600 300M0 300L600 0" clip-path="url(#d)" transform="scale(.60681 .73139)"/>
  <path style="line-height:normal;text-indent:0;text-align:start;text-decoration-line:none;text-decoration-style:solid;text-decoration-color:#000;text-transform:none;block-progression:tb;isolation:auto;mix-blend-mode:normal" fill="#fff" d="M151.7 0v79.4H0V140h151.7v79.4h60.7v-79.3H364V79.4H212.4V0z" clip-path="url(#c)" color="#000" font-family="sans-serif" font-weight="400" overflow="visible"/>
  <path style="line-height:normal;text-indent:0;text-align:start;text-decoration-line:none;text-decoration-style:solid;text-decoration-color:#000;text-transform:none;block-progression:tb;isolation:auto;mix-blend-mode:normal" fill="#cc142b" d="M163.8 0v91.5H0v36.4h163.8v91.5h36.4V128h163.9V91.5H200.2V0z" color="#000" font-family="sans-serif" font-weight="400" overflow="visible"/>
</svg>
